src/images/icons/my-quests.svg

<svg width="18" height="18" viewBox="0 0 18 18" fill="none" xmlns="http://www.w3.org/2000/svg">
<path d="M17.8875 7.4925C17.9325 7.7475 17.9625 7.9986 17.9775 8.2458C17.9925 8.4936 18 8.745 18 9C18 10.245 17.7636 11.415 17.2908 12.51C16.8186 13.605 16.1775 14.5575 15.3675 15.3675C14.5575 16.1775 13.605 16.8186 12.51 17.2908C11.415 17.7636 10.245 18 9 18C7.755 18 6.585 17.7636 5.49 17.2908C4.395 16.8186 3.4425 16.1775 2.6325 15.3675C1.8225 14.5575 1.1814 13.605 0.7092 12.51C0.2364 11.415 0 10.245 0 9C0 7.755 0.2364 6.585 0.7092 5.49C1.1814 4.395 1.8225 3.4425 2.6325 2.6325C3.4425 1.8225 4.395 1.1811 5.49 0.7083C6.585 0.2361 7.755 0 9 0C9.765 0 10.5039 0.0936 11.2167 0.2808C11.9289 0.4686 12.6 0.7275 13.23 1.0575C13.455 1.1775 13.5939 1.3611 13.6467 1.6083C13.6989 1.8561 13.6425 2.085 13.4775 2.295C13.3275 2.49 13.1325 2.6175 12.8925 2.6775C12.6525 2.7375 12.4275 2.7075 12.2175 2.5875C11.7375 2.3325 11.2239 2.1375 10.6767 2.0025C10.1289 1.8675 9.57 1.8 9 1.8C7.005 1.8 5.3064 2.5011 3.9042 3.9033C2.5014 5.3061 1.8 7.005 1.8 9C1.8 10.995 2.5014 12.6939 3.9042 14.0967C5.3064 15.4989 7.005 16.2 9 16.2C10.995 16.2 12.6939 15.4989 14.0967 14.0967C15.4989 12.6939 16.2 10.995 16.2 9C16.2 8.805 16.1925 8.6136 16.1775 8.4258C16.1625 8.2386 16.14 8.0475 16.11 7.8525C16.08 7.6425 16.1139 7.4475 16.2117 7.2675C16.3089 7.0875 16.4475 6.945 16.6275 6.84C16.8825 6.69 17.1414 6.6861 17.4042 6.8283C17.6664 6.9711 17.8275 7.1925 17.8875 7.4925ZM7.11 12.51L4.5225 9.9225C4.3575 9.7575 4.2789 9.5511 4.2867 9.3033C4.2939 9.0561 4.38 8.85 4.545 8.685C4.71 8.52 4.92 8.4375 5.175 8.4375C5.43 8.4375 5.64 8.52 5.805 8.685L7.74 10.62L16.1325 2.205C16.2975 2.04 16.5039 1.9611 16.7517 1.9683C16.9989 1.9761 17.205 2.0625 17.37 2.2275C17.535 2.3925 17.6175 2.6025 17.6175 2.8575C17.6175 3.1125 17.535 3.3225 17.37 3.4875L8.37 12.51C8.205 12.675 7.995 12.7575 7.74 12.7575C7.485 12.7575 7.275 12.675 7.11 12.51Z" fill="white"/>
</svg>

<svg width="18" height="18" fill="none" xmlns="http://www.w3.org/2000/svg"><path d="M17.887 7.492c.046.255.075.507.09.754.015.248.023.499.023.754a8.759 8.759 0 0 1-.71 3.51 9.082 9.082 0 0 1-1.922 2.857 9.082 9.082 0 0 1-2.858 1.924A8.759 8.759 0 0 1 9 18a8.759 8.759 0 0 1-3.51-.71 9.082 9.082 0 0 1-2.858-1.922A9.082 9.082 0 0 1 .71 12.51 8.759 8.759 0 0 1 0 9c0-1.245.236-2.415.71-3.51a9.082 9.082 0 0 1 1.922-2.858A9.095 9.095 0 0 1 5.49.708 8.769 8.769 0 0 1 9 0a8.69 8.69 0 0 1 2.217.28 9.596 9.596 0 0 1 2.013.778c.225.12.364.303.417.55a.8.8 0 0 1-.17.687c-.15.195-.345.323-.585.383a.882.882 0 0 1-.675-.09 6.68 6.68 0 0 0-1.54-.586A6.981 6.981 0 0 0 9 1.8c-1.995 0-3.694.701-5.096 2.103C2.501 5.306 1.8 7.005 1.8 9c0 1.995.701 3.694 2.104 5.097C5.306 15.499 7.005 16.2 9 16.2s3.694-.701 5.097-2.103C15.499 12.694 16.2 10.995 16.2 9a7.21 7.21 0 0 0-.09-1.147.921.921 0 0 1 .102-.585c.097-.18.236-.323.416-.428a.743.743 0 0 1 .776-.012.927.927 0 0 1 .483.664zM7.11 12.51 4.522 9.922a.802.802 0 0 1-.235-.619.877.877 0 0 1 .258-.618.853.853 0 0 1 .63-.248c.255 0 .465.083.63.248L7.74 10.62l8.393-8.415a.805.805 0 0 1 .619-.237.88.88 0 0 1 .618.26.853.853 0 0 1 .247.63.853.853 0 0 1-.247.63l-9 9.022a.853.853 0 0 1-.63.248.853.853 0 0 1-.63-.248z" fill="#fff"/></svg>
